svgs/light/boxes-stacked.svg

<svg xmlns="http://www.w3.org/2000/svg" viewBox="0 0 576 512"><!--! Font Awesome Pro 6.6.0 by @fontawesome - https://fontawesome.com License - https://fontawesome.com/license (Commercial License) Copyright 2024 Fonticons, Inc. --><path d="M384 32c17.7 0 32 14.3 32 32l0 128 32 0 0-128c0-35.3-28.7-64-64-64L320 0 256 0 192 0c-35.3 0-64 28.7-64 64l0 128 32 0 0-128c0-17.7 14.3-32 32-32l32 0 0 56c0 22.1 17.9 40 40 40l48 0c22.1 0 40-17.9 40-40l0-56 32 0zM256 32l64 0 0 56c0 4.4-3.6 8-8 8l-48 0c-4.4 0-8-3.6-8-8l0-56zm71.6 480L512 512c35.3 0 64-28.7 64-64l0-160c0-35.3-28.7-64-64-64l-64 0-64 0-56.4 0c8.3 9.2 14.8 20.1 19 32l5.5 0 0 31.9c0 0 0 0 0 .1l0 24c0 22.1 17.9 40 40 40l48 0c22.1 0 40-17.9 40-40l0-56 32 0c17.7 0 32 14.3 32 32l0 160c0 17.7-14.3 32-32 32l-165.5 0c-4.2 11.9-10.7 22.8-19 32zM384 256l64 0 0 56c0 4.4-3.6 8-8 8l-48 0c-4.4 0-8-3.6-8-8l0-56zm-128 0c17.7 0 32 14.3 32 32l0 160c0 17.7-14.3 32-32 32L64 480c-17.7 0-32-14.3-32-32l0-160c0-17.7 14.3-32 32-32l32 0 0 56c0 22.1 17.9 40 40 40l48 0c22.1 0 40-17.9 40-40l0-56 32 0zM128 312l0-56 64 0 0 56c0 4.4-3.6 8-8 8l-48 0c-4.4 0-8-3.6-8-8zm128-88l-32 0-32 0-64 0-32 0-32 0c-35.3 0-64 28.7-64 64L0 448c0 35.3 28.7 64 64 64l192 0c35.3 0 64-28.7 64-64l0-160c0-35.3-28.7-64-64-64z"/></svg>

<svg xmlns="http://www.w3.org/2000/svg" viewBox="0 0 576 512"><!--! Font Awesome Pro 6.4.0 by @fontawesome - https://fontawesome.com License - https://fontawesome.com/license (Commercial License) Copyright 2023 Fonticons, Inc. --><path d="M384 32c17.7 0 32 14.3 32 32V192h32V64c0-35.3-28.7-64-64-64H320 256 192c-35.3 0-64 28.7-64 64V192h32V64c0-17.7 14.3-32 32-32h32V88c0 22.1 17.9 40 40 40h48c22.1 0 40-17.9 40-40V32h32zM256 32h64V88c0 4.4-3.6 8-8 8H264c-4.4 0-8-3.6-8-8V32zm71.6 480H512c35.3 0 64-28.7 64-64V288c0-35.3-28.7-64-64-64H448 384 327.6c8.3 9.2 14.8 20.1 19 32H352v31.9 .1 24c0 22.1 17.9 40 40 40h48c22.1 0 40-17.9 40-40V256h32c17.7 0 32 14.3 32 32V448c0 17.7-14.3 32-32 32H346.5c-4.2 11.9-10.7 22.8-19 32zM384 256h64v56c0 4.4-3.6 8-8 8H392c-4.4 0-8-3.6-8-8V256zm-128 0c17.7 0 32 14.3 32 32V448c0 17.7-14.3 32-32 32H64c-17.7 0-32-14.3-32-32V288c0-17.7 14.3-32 32-32H96v56c0 22.1 17.9 40 40 40h48c22.1 0 40-17.9 40-40V256h32zM128 312V256h64v56c0 4.4-3.6 8-8 8H136c-4.4 0-8-3.6-8-8zm128-88H224 192 128 96 64c-35.3 0-64 28.7-64 64V448c0 35.3 28.7 64 64 64H256c35.3 0 64-28.7 64-64V288c0-35.3-28.7-64-64-64z"/></svg>
